src/module-activities.svg

<?xml version="1.0" encoding="UTF-8"?>
<svg xmlns="http://www.w3.org/2000/svg" xmlns:xlink="http://www.w3.org/1999/xlink" width="1024pt" height="1024pt" viewBox="0 0 1024 1024" version="1.1">
<g id="surface1">
<path style=" stroke:none;fill-rule:evenodd;fill:rgb(0%,0%,0%);fill-opacity:1;" d="M 992.824219 281.851562 C 967.253906 255.382812 926.117188 255.382812 900.550781 281.851562 L 641.515625 551.125 L 474.757812 378.511719 L 382.484375 283 L 290.210938 378.511719 L 31.175781 646.636719 C 5.609375 673.101562 5.609375 715.679688 31.175781 742.148438 C 56.746094 768.617188 97.882812 768.617188 123.449219 742.148438 L 382.484375 474.027344 L 549.242188 646.636719 L 641.515625 742.148438 L 733.789062 646.636719 L 992.824219 377.363281 C 1018.390625 350.898438 1018.390625 308.316406 992.824219 281.851562 "/>
<path style=" stroke:none;fill-rule:evenodd;fill:rgb(0%,0%,0%);fill-opacity:1;" d="M 832.734375 653.542969 C 832.734375 702.476562 871.0625 742.148438 918.335938 742.148438 C 965.613281 742.148438 1003.941406 702.476562 1003.941406 653.542969 C 1003.941406 604.601562 965.613281 564.933594 918.335938 564.933594 C 871.0625 564.933594 832.734375 604.601562 832.734375 653.542969 Z M 832.734375 653.542969 "/>
</g>
</svg>

<?xml version="1.0" encoding="UTF-8" standalone="no"?>
<svg
   xmlns:dc="http://purl.org/dc/elements/1.1/"
   xmlns:cc="http://creativecommons.org/ns#"
   xmlns:rdf="http://www.w3.org/1999/02/22-rdf-syntax-ns#"
   xmlns:svg="http://www.w3.org/2000/svg"
   xmlns="http://www.w3.org/2000/svg"
   xmlns:sodipodi="http://sodipodi.sourceforge.net/DTD/sodipodi-0.dtd"
   xmlns:inkscape="http://www.inkscape.org/namespaces/inkscape"
   width="1024"
   height="1024"
   viewBox="0 0 1024 1024"
   version="1.1"
   id="svg2"
   inkscape:version="0.91 r13725"
   sodipodi:docname="Activities.svg">
  <metadata
     id="metadata18">
    <rdf:RDF>
      <cc:Work
         rdf:about="">
        <dc:format>image/svg+xml</dc:format>
        <dc:type
           rdf:resource="http://purl.org/dc/dcmitype/StillImage" />
        <dc:title>acc_activities</dc:title>
      </cc:Work>
    </rdf:RDF>
  </metadata>
  <sodipodi:namedview
     pagecolor="#ffffff"
     bordercolor="#666666"
     borderopacity="1"
     objecttolerance="10"
     gridtolerance="10"
     guidetolerance="10"
     inkscape:pageopacity="0"
     inkscape:pageshadow="2"
     inkscape:window-width="1366"
     inkscape:window-height="703"
     id="namedview16"
     showgrid="false"
     inkscape:zoom="0.17383042"
     inkscape:cx="-390.11653"
     inkscape:cy="-133.23454"
     inkscape:window-x="0"
     inkscape:window-y="0"
     inkscape:window-maximized="1"
     inkscape:current-layer="svg2" />
  <!-- Generator: Sketch 3.8.3 (29802) - http://www.bohemiancoding.com/sketch -->
  <title
     id="title4">acc_activities</title>
  <desc
     id="desc6">Created with Sketch.</desc>
  <defs
     id="defs8" />
  <path
     style="fill:#000000;fill-opacity:1;fill-rule:evenodd;stroke:none;stroke-width:1"
     inkscape:connector-curvature="0"
     id="Fill-1"
     d="m 992.82322,281.84995 c -25.569,-26.4666 -66.7042,-26.4666 -92.27319,0 L 641.51727,551.12606 474.75772,378.5116 382.48268,283.00151 290.20948,378.5116 31.176724,646.63614 c -25.5689806,26.46661 -25.5689806,69.04348 0,95.51394 25.568977,26.46655 66.7042,26.46655 92.273186,0 l 259.03277,-268.12456 166.75956,172.61062 92.27503,95.51394 92.2732,-95.51394 259.03275,-269.27226 c 25.56908,-26.46659 25.56908,-69.04732 0,-95.51393" />
  <path
     style="fill:#000000;fill-opacity:1;fill-rule:evenodd;stroke:none;stroke-width:1"
     inkscape:connector-curvature="0"
     id="Fill-3"
     d="m 832.73331,653.54165 c 0,48.93548 38.32826,88.60843 85.60408,88.60843 47.27582,0 85.60401,-39.67295 85.60401,-88.60843 0,-48.93934 -38.32819,-88.60843 -85.60401,-88.60843 -47.27582,0 -85.60408,39.66909 -85.60408,88.60843 z" />
</svg>
